docs/assets/images/woocommerce.svg

<svg width="50" height="50" viewBox="0 0 50 50" fill="none" xmlns="http://www.w3.org/2000/svg">
<g clip-path="url(#clip0_913_28238)">
<path d="M4.64068 10.4167H45.3399C47.9155 10.4167 50.0006 12.5001 50.0006 15.074V30.5983C50.0006 33.172 47.9157 35.2557 45.3399 35.2557H30.7448L32.7481 40.158L23.9377 35.2557H4.66138C2.08579 35.2557 0.000637307 33.1722 0.000637307 30.5983V15.074C-0.0198041 12.5206 2.06529 10.4167 4.64087 10.4167H4.64068Z" fill="#7F54B3"/>
<path d="M2.84725 14.6617C3.1318 14.2758 3.55863 14.0727 4.12773 14.0321C5.16432 13.9508 5.75375 14.4383 5.89603 15.4944C6.52611 19.7394 7.21717 23.3342 7.94896 26.2793L12.4001 17.8099C12.8066 17.0381 13.3148 16.6319 13.9245 16.5913C14.8188 16.5304 15.3676 17.099 15.5912 18.2974C16.0993 20.9987 16.7497 23.2937 17.5221 25.2435C18.0505 20.0845 18.9449 16.3679 20.2051 14.0727C20.51 13.504 20.9571 13.2197 21.5466 13.179C22.014 13.1384 22.4409 13.2806 22.8271 13.5852C23.2132 13.8899 23.4165 14.2758 23.4571 14.7429C23.4775 15.1085 23.4165 15.4132 23.2539 15.7178C22.4612 17.1802 21.8108 19.6378 21.2824 23.0498C20.7743 26.3605 20.5913 28.9399 20.7133 30.7881C20.7539 31.2959 20.6726 31.7427 20.4694 32.1286C20.2255 32.5755 19.8596 32.8192 19.3921 32.8598C18.8637 32.9004 18.3149 32.6567 17.7865 32.1083C15.8962 30.1788 14.3921 27.2948 13.2947 23.456C11.9735 26.0557 10.998 28.0056 10.3679 29.3055C9.16873 31.6005 8.15248 32.7785 7.29877 32.8394C6.74998 32.88 6.2825 32.4129 5.876 31.438C4.83941 28.7772 3.7215 23.6388 2.52228 16.0224C2.44098 15.4944 2.56293 15.0272 2.84748 14.6616L2.84725 14.6617ZM46.5269 17.8504C45.7952 16.5708 44.718 15.7989 43.275 15.4943C42.8888 15.413 42.523 15.3724 42.1774 15.3724C40.2262 15.3724 38.6409 16.3879 37.4011 18.419C36.3441 20.1454 35.8157 22.0547 35.8157 24.1465C35.8157 25.7104 36.1409 27.0508 36.7913 28.168C37.523 29.4476 38.6002 30.2194 40.0432 30.5241C40.4294 30.6053 40.7953 30.646 41.1408 30.646C43.1123 30.646 44.6976 29.6304 45.9172 27.5993C46.9741 25.8526 47.5025 23.9434 47.5025 21.8516C47.5229 20.2673 47.1773 18.9472 46.5269 17.8504V17.8504ZM43.966 23.4764C43.6814 24.8169 43.1733 25.812 42.4213 26.4824C41.8319 27.0105 41.2831 27.2339 40.7749 27.1323C40.2871 27.0308 39.8806 26.6042 39.5758 25.8121C39.3319 25.1825 39.2099 24.5529 39.2099 23.9639C39.2099 23.4561 39.2506 22.9484 39.3522 22.4812C39.5351 21.6485 39.8806 20.8361 40.4294 20.0643C41.1001 19.069 41.8115 18.6628 42.5433 18.805C43.0311 18.9066 43.4376 19.3331 43.7425 20.1252C43.9864 20.7548 44.1083 21.3844 44.1083 21.9734C44.1083 22.5015 44.0677 23.0093 43.966 23.4764L43.966 23.4764ZM33.8033 17.8504C33.0716 16.5708 31.974 15.7989 30.5514 15.4943C30.1652 15.413 29.7993 15.3724 29.4538 15.3724C27.5026 15.3724 25.9173 16.3879 24.6774 18.419C23.6205 20.1454 23.0921 22.0547 23.0921 24.1465C23.0921 25.7104 23.4172 27.0508 24.0677 28.168C24.7994 29.4476 25.8766 30.2194 27.3196 30.5241C27.7058 30.6053 28.0716 30.646 28.4172 30.646C30.3887 30.646 31.974 29.6304 33.1935 27.5993C34.2505 25.8526 34.7789 23.9434 34.7789 21.8516C34.7789 20.2673 34.4537 18.9472 33.8033 17.8504V17.8504ZM31.2221 23.4764C30.9375 24.8169 30.4294 25.812 29.6773 26.4824C29.0879 27.0105 28.5391 27.2339 28.031 27.1323C27.5432 27.0308 27.1367 26.6042 26.8318 25.8121C26.5879 25.1825 26.466 24.5529 26.466 23.9639C26.466 23.4561 26.5066 22.9484 26.6082 22.4812C26.7912 21.6485 27.1367 20.8361 27.6855 20.0643C28.3562 19.069 29.0676 18.6628 29.7993 18.805C30.2871 18.9066 30.6936 19.3331 30.9985 20.1252C31.2424 20.7548 31.3644 21.3844 31.3644 21.9734C31.3847 22.5015 31.3237 23.0093 31.2221 23.4764L31.2221 23.4764Z" fill="white"/>
</g>
<defs>
<clipPath id="clip0_913_28238">
<rect width="50" height="29.8611" fill="white" transform="translate(0 10.4167)"/>
</clipPath>
</defs>
</svg>

<svg xmlns="http://www.w3.org/2000/svg" fill="none" viewBox="0 0 50 50"><g clip-path="url(#a)"><path fill="#7F54B3" d="M4.64 10.417h40.7A4.657 4.657 0 0 1 50 15.074v15.524a4.657 4.657 0 0 1-4.66 4.658H30.745l2.003 4.902-8.81-4.902H4.66a4.657 4.657 0 0 1-4.66-4.658V15.074c-.02-2.553 2.064-4.657 4.64-4.657z"/><path fill="#fff" d="M2.847 14.662c.285-.386.712-.59 1.28-.63 1.037-.081 1.627.406 1.769 1.462.63 4.245 1.321 7.84 2.053 10.785l4.451-8.47c.407-.77.915-1.177 1.524-1.218.895-.06 1.444.508 1.667 1.706.508 2.702 1.159 4.997 1.931 6.947.529-5.16 1.423-8.876 2.683-11.171.305-.569.752-.853 1.342-.894.467-.04.894.102 1.28.406.386.305.59.69.63 1.158.02.365-.04.67-.203.975-.793 1.462-1.443 3.92-1.972 7.332-.508 3.31-.69 5.89-.569 7.738.04.508-.04.955-.244 1.34-.244.447-.61.691-1.077.732-.528.04-1.077-.203-1.605-.752-1.89-1.93-3.395-4.813-4.492-8.652a380.24 380.24 0 0 0-2.927 5.85c-1.2 2.294-2.216 3.473-3.07 3.533-.548.041-1.016-.426-1.422-1.401-1.037-2.66-2.155-7.8-3.354-15.416-.081-.528.04-.995.325-1.36zm43.68 3.188c-.732-1.28-1.809-2.051-3.252-2.356a5.335 5.335 0 0 0-1.098-.122c-1.95 0-3.536 1.016-4.776 3.047-1.057 1.726-1.585 3.636-1.585 5.727 0 1.564.325 2.905.975 4.022.732 1.28 1.81 2.051 3.252 2.356.386.081.752.122 1.098.122 1.971 0 3.557-1.016 4.776-3.047 1.057-1.746 1.585-3.656 1.585-5.747.02-1.585-.325-2.905-.975-4.002zm-2.561 5.626c-.285 1.34-.793 2.336-1.545 3.006-.59.529-1.138.752-1.646.65-.488-.101-.894-.528-1.2-1.32a5.151 5.151 0 0 1-.365-1.848c0-.508.04-1.016.142-1.483a6.564 6.564 0 0 1 1.077-2.417c.671-.995 1.383-1.401 2.114-1.259.488.102.895.528 1.2 1.32.243.63.365 1.26.365 1.848 0 .529-.04 1.036-.142 1.503zM33.803 17.85c-.731-1.28-1.829-2.051-3.252-2.356a5.336 5.336 0 0 0-1.097-.122c-1.951 0-3.537 1.016-4.777 3.047-1.056 1.726-1.585 3.636-1.585 5.727 0 1.564.325 2.905.976 4.022.731 1.28 1.809 2.051 3.252 2.356.386.081.752.122 1.097.122 1.972 0 3.557-1.016 4.776-3.047 1.058-1.746 1.586-3.656 1.586-5.747 0-1.585-.325-2.905-.976-4.002zm-2.58 5.626c-.285 1.34-.794 2.336-1.546 3.006-.59.529-1.138.752-1.646.65-.488-.101-.894-.528-1.2-1.32a5.151 5.151 0 0 1-.365-1.848c0-.508.04-1.016.142-1.483a6.566 6.566 0 0 1 1.078-2.417c.67-.995 1.382-1.401 2.113-1.259.488.102.895.528 1.2 1.32.243.63.365 1.26.365 1.848.02.529-.04 1.036-.142 1.503z"/></g><defs><clipPath id="a"><path fill="#fff" d="M0 0H50V29.861H0z" transform="translate(0 10.417)"/></clipPath></defs></svg>
